%
O01001
(Machine)
(  vendor: Autodesk)
(  description: Generic 3-axis)
(T1  D=10. CR=0. - ZMIN=0. - flat end mill)
N10 G90 G94 G17
N15 G21
N20 G28 G91 Z0.
N25 G90
(Finishing Pipe Hole)
N30 T1 M6
N35 S3000 M3
N40 G54
N45 M8
N55 G0 X-46.279 Y-5.677
N60 G43 Z50. H1
N65 G1 Z14.4 F17500.
N70 Z0. F500.
N75 X-46.585 Y-5.407 F1200.
N80 X-47.265 Y-4.882
N85 X-47.977 Y-4.404
N90 X-48.719 Y-3.973
N95 X-49.487 Y-3.593
N100 X-50.277 Y-3.264
N105 X-51.086 Y-2.989
N110 X-51.909 Y-2.768
N115 X-52.744 Y-2.602
N120 X-53.586 Y-2.492
N125 X-54.431 Y-2.438
N130 X-55.276 Y-2.441
N135 X-56.116 Y-2.5
N140 X-56.949 Y-2.614
N145 X-57.769 Y-2.784
N150 X-58.575 Y-3.007
N155 X-59.361 Y-3.284
N160 X-60.126 Y-3.612
N165 X-60.865 Y-3.991
N170 X-61.575 Y-4.417
N175 X-62.254 Y-4.891
N180 X-62.898 Y-5.408
N185 X-63.505 Y-5.968
N190 X-64.072 Y-6.567
N195 X-64.597 Y-7.204
N200 X-65.078 Y-7.874
N205 X-65.512 Y-8.577
N210 X-65.898 Y-9.308
N215 X-66.234 Y-10.064
N220 X-66.518 Y-10.842
N225 X-66.749 Y-11.64
N230 X-66.926 Y-12.453
N235 X-67.049 Y-13.277
N240 X-67.115 Y-14.111
N245 X-67.126 Y-14.949
N250 X-67.08 Y-15.788
N255 X-66.978 Y-16.624
N260 X-66.82 Y-17.454
N265 X-66.607 Y-18.274
N270 X-66.339 Y-19.079
N275 X-66.017 Y-19.867
N280 X-65.644 Y-20.634
N285 X-65.22 Y-21.375
N290 X-64.747 Y-22.089
N295 X-64.228 Y-22.77
N300 X-63.664 Y-23.417
N305 X-63.059 Y-24.025
N310 X-62.415 Y-24.593
N315 X-61.735 Y-25.118
N320 X-61.023 Y-25.596
N325 X-60.281 Y-26.027
N330 X-59.513 Y-26.407
N335 X-58.723 Y-26.736
N340 X-57.914 Y-27.011
N345 X-57.091 Y-27.232
N350 X-56.256 Y-27.398
N355 X-55.414 Y-27.508
N360 X-54.569 Y-27.562
N365 X-53.724 Y-27.559
N370 X-52.884 Y-27.5
N375 X-52.051 Y-27.386
N380 X-51.231 Y-27.217
N385 X-50.425 Y-26.993
N390 X-49.638 Y-26.716
N395 X-48.874 Y-26.388
N400 X-48.135 Y-26.009
N405 X-47.425 Y-25.583
N410 X-46.746 Y-25.109
N415 X-46.102 Y-24.592
N420 X-45.495 Y-24.032
N425 X-44.928 Y-23.433
N430 X-44.403 Y-22.796
N435 X-43.922 Y-22.126
N440 X-43.488 Y-21.423
N445 X-43.102 Y-20.692
N450 X-42.766 Y-19.936
N455 X-42.482 Y-19.158
N460 X-42.251 Y-18.36
N465 X-42.074 Y-17.547
N470 X-41.951 Y-16.723
N475 X-41.885 Y-15.889
N480 X-41.874 Y-15.051
N485 X-41.92 Y-14.212
N490 X-42.022 Y-13.376
N495 X-42.18 Y-12.546
N500 X-42.393 Y-11.726
N505 X-42.661 Y-10.921
N510 X-42.983 Y-10.133
N515 X-43.356 Y-9.366
N520 X-43.78 Y-8.625
N525 X-44.253 Y-7.911
N530 X-44.772 Y-7.23
N535 X-45.336 Y-6.583
N540 X-45.941 Y-5.975
N545 X-46.279 Y-5.677
N550 Z14.4
N555 Z50. F17500.
N565 M9
N570 G28 G91 Z0.
N575 G90 G53 G0 X0. Y0.
N580 M30
%
